X:1
T:First Wish
C:Paul Rosen
S:Copyright 2004, Paul Rosen
M:4/4 
L:1/8
Q:C4=120
R:uplifting
K:Em
ef|:"Em"g2efg2ef|g2e2e2g2|"A7"a3gf2e2|"B7"fe^d^cB4|
"Am"cBAB cdcB|"C"c2^c2"D"d2^d2|"Em"eBGB
"D"AFDF|1"Em"E^DEFE2ef:|2"Em"E^DEFE4|
|:B3eg3e|"B7"^d2f2a2f2|"A7"a3gf2e2|"B7"fe^d^cB4|
"A"A2^cde2f2|"Em"gfef gage|"B7"fe^def2d2|"Em"e^defe4:|
